dist/img/svg/rutube.svg

<svg width="19" height="17" viewBox="0 0 19 17" fill="none" xmlns="http://www.w3.org/2000/svg">
<g clip-path="url(#clip0_1029_9445)">
<path d="M10.0101 10.2794H2.98102V7.39967H10.0101C10.4207 7.39967 10.7062 7.47376 10.8495 7.60315C10.9928 7.73254 11.0815 7.97252 11.0815 8.32309V9.3571C11.0815 9.72647 10.9928 9.96645 10.8495 10.0958C10.7062 10.2252 10.4207 10.2805 10.0101 10.2805V10.2794ZM10.4924 4.6847H0V16.9999H2.98102V12.9933H8.47471L11.0815 16.9999H14.4196L11.5456 12.9745C12.6052 12.8119 13.081 12.4757 13.4734 11.9217C13.8658 11.3676 14.0625 10.4818 14.0625 9.2996V8.37617C14.0625 7.67504 13.9909 7.12098 13.8658 6.69632C13.7407 6.27165 13.5268 5.90229 13.2232 5.57053C12.9024 5.25644 12.5453 5.03527 12.1165 4.88707C11.6878 4.75768 11.1521 4.68359 10.4924 4.68359V4.6847Z" fill="currentColor"/>
<path d="M16.7121 4.68367C17.9769 4.68367 19.0022 3.63519 19.0022 2.34184C19.0022 1.04848 17.9769 0 16.7121 0C15.4472 0 14.4219 1.04848 14.4219 2.34184C14.4219 3.63519 15.4472 4.68367 16.7121 4.68367Z" fill="currentColor"/>
</g>
<defs>
<clipPath id="clip0_1029_9445">
<rect width="19" height="17" fill="white"/>
</clipPath>
</defs>
</svg>

<svg width="19" height="17" viewBox="0 0 19 17" fill="none" xmlns="http://www.w3.org/2000/svg"><g clip-path="url(#clip0_1029_9445)" fill="currentColor"><path d="M10.01 10.28H2.981V7.4h7.03c.41 0 .695.074.839.203.143.13.232.37.232.72v1.034c0 .37-.09.61-.232.739-.144.13-.43.184-.84.184zm.482-5.595H0V17h2.981v-4.007h5.494L11.082 17h3.338l-2.874-4.025c1.06-.163 1.535-.5 1.927-1.053.393-.554.59-1.44.59-2.622v-.924c0-.701-.072-1.255-.197-1.68a2.823 2.823 0 00-.643-1.125 2.887 2.887 0 00-1.107-.684c-.428-.13-.964-.203-1.624-.203zm6.22-.001c1.265 0 2.29-1.049 2.29-2.342 0-1.294-1.025-2.342-2.29-2.342-1.265 0-2.29 1.048-2.29 2.342 0 1.293 1.025 2.342 2.29 2.342z"/></g><defs><clipPath id="clip0_1029_9445"><path fill="#fff" d="M0 0h19v17H0z"/></clipPath></defs></svg> 4.68359V4.6847Z" fill="currentColor"/>
<path d="M16.7121 4.68367C17.9769 4.68367 19.0022 3.63519 19.0022 2.34184C19.0022 1.04848 17.9769 0 16.7121 0C15.4472 0 14.4219 1.04848 14.4219 2.34184C14.4219 3.63519 15.4472 4.68367 16.7121 4.68367Z" fill="currentColor"/>
</g>
<defs>
<clipPath id="clip0_1029_9445">
<rect width="19" height="17" fill="white"/>
</clipPath>
</defs>
</svg>
